packages/foundations/assets/icons/functional/images/social/share_24.svg

<svg width="24" height="24" viewBox="0 0 24 24" fill="none" xmlns="http://www.w3.org/2000/svg">
<g clip-path="url(#clip0_187_423)">
<path fill-rule="evenodd" clip-rule="evenodd" d="M17.5079 3C19.4297 3 21 4.57028 21 6.49215C21 8.43748 19.4297 10.0079 17.5079 10.0079C16.4063 10.0079 15.4688 9.49215 14.8125 8.71879L9.89066 11.1563C9.96093 11.4375 10.0079 11.7188 10.0079 12C10.0079 12.2812 9.96093 12.5625 9.89066 12.8203L14.836 15.2579C15.4688 14.4844 16.4297 13.9921 17.5079 13.9921C19.4297 13.9921 21 15.5625 21 17.5079C21 19.4297 19.4297 21 17.5079 21C15.5625 21 13.9921 19.4297 13.9921 17.5079C13.9921 17.3672 14.0205 17.1737 14.0391 17.086L8.8828 14.5547C8.25 15.1407 7.42972 15.4922 6.49215 15.4922C4.57028 15.4922 3 13.9453 3 12C3 10.0781 4.57028 8.50775 6.49215 8.50775C7.40626 8.50775 8.25 8.85934 8.85934 9.44533L14.0391 6.89066C14.0077 6.76517 13.9921 6.6328 13.9921 6.49215C13.9921 4.57028 15.5625 3 17.5079 3ZM17.496 15.9844C16.6588 15.9844 15.9844 16.6588 15.9844 17.496C15.9844 18.3099 16.6588 18.9844 17.496 18.9844C18.3099 18.9844 18.9844 18.3099 18.9844 17.496C18.9844 16.6588 18.3099 15.9844 17.496 15.9844ZM6.49215 10.5C5.67187 10.5 4.99215 11.1797 4.99215 12C4.99215 12.8203 5.67187 13.5 6.49215 13.5C7.33588 13.5 8.01561 12.8203 8.01561 12C8.01561 11.1797 7.33588 10.5 6.49215 10.5ZM17.5116 5C16.6744 5 16 5.67445 16 6.48836C16 7.32555 16.6744 8 17.5116 8C18.3256 8 19 7.32555 19 6.48836C19 5.67445 18.3256 5 17.5116 5Z" fill="#1A1C1F"/>
</g>
<defs>
<clipPath id="clip0_187_423">
<rect width="24" height="24" fill="white"/>
</clipPath>
</defs>
</svg>

<svg xmlns="http://www.w3.org/2000/svg" width="24" height="24" fill="none"><g clip-path="url(#a)"><path fill="#1A1C1F" fill-rule="evenodd" d="M17.508 3A3.5 3.5 0 0 1 21 6.492c0 1.945-1.57 3.516-3.492 3.516-1.102 0-2.04-.516-2.695-1.29L9.89 11.157c.07.281.117.563.117.844s-.047.563-.117.82l4.945 2.438a3.44 3.44 0 0 1 2.672-1.266c1.922 0 3.492 1.57 3.492 3.516A3.5 3.5 0 0 1 17.508 21c-1.945 0-3.516-1.57-3.516-3.492 0-.14.028-.334.047-.422l-5.156-2.531a3.47 3.47 0 0 1-2.39.937A3.486 3.486 0 0 1 3 12a3.5 3.5 0 0 1 3.492-3.492 3.4 3.4 0 0 1 2.367.937l5.18-2.554a1.6 1.6 0 0 1-.047-.399C13.992 4.57 15.562 3 17.508 3m-.012 12.984c-.837 0-1.512.675-1.512 1.512 0 .814.675 1.488 1.512 1.488.814 0 1.488-.674 1.488-1.488 0-.837-.674-1.512-1.488-1.512M6.492 10.5c-.82 0-1.5.68-1.5 1.5s.68 1.5 1.5 1.5c.844 0 1.524-.68 1.524-1.5s-.68-1.5-1.524-1.5M17.512 5C16.674 5 16 5.674 16 6.488 16 7.326 16.674 8 17.512 8 18.326 8 19 7.326 19 6.488 19 5.674 18.326 5 17.512 5" clip-rule="evenodd"/></g><defs><clipPath id="a"><path fill="#fff" d="M0 0h24v24H0z"/></clipPath></defs></svg>
